X:375
T: Leichter Trost (102), S. 253
N: T0264
O: Luxemburg
S: Singendes Volk, Esch-Alzette 1937 posth.]
N: Roder, hhh Nikolaus Grotz, 18.1.1934
R: Liebeslieder]
M: 4/4
L: 1/8
K: A
E2 | A3EC2E2 | A3GA2
c2 | B3GBAGF | E2EFE2
EE | A2AAB2E2 | c2e2d2
B2 | c3cB2B2 | A2z4
EE | A2AAB2E2 | c2e2d2
B2 | c3cB2B2 | A2z4

